src/lib/packages/icons/src/assets/line/vector.svg

<svg width="24" height="24" viewBox="0 0 24 24" fill="none" xmlns="http://www.w3.org/2000/svg">
<path d="M21.75 5.5V4.5C21.75 3.091 20.909 2.25 19.5 2.25H18.5C17.179 2.25 16.367 2.996 16.269 4.25H7.72998C7.63298 2.996 6.82002 2.25 5.49902 2.25H4.49902C3.09002 2.25 2.24902 3.091 2.24902 4.5V5.5C2.24902 6.821 2.99502 7.63301 4.24902 7.73001V16.269C2.99502 16.366 2.24902 17.178 2.24902 18.499V19.499C2.24902 20.908 3.09002 21.749 4.49902 21.749H5.49902C6.82002 21.749 7.63198 21.003 7.72998 19.749H16.269C16.366 21.003 17.179 21.749 18.5 21.749H19.5C20.909 21.749 21.75 20.908 21.75 19.499V18.499C21.75 17.178 21.004 16.366 19.75 16.269V7.73001C21.004 7.63301 21.75 6.821 21.75 5.5ZM17.75 4.5C17.75 3.911 17.911 3.75 18.5 3.75H19.5C20.089 3.75 20.25 3.911 20.25 4.5V5.5C20.25 6.089 20.089 6.25 19.5 6.25H18.5C17.911 6.25 17.75 6.089 17.75 5.5V4.5ZM16.269 18.25H7.72998C7.63898 17.08 6.92002 16.36 5.74902 16.27V7.73099C6.91902 7.63999 7.63898 6.92101 7.72998 5.75101H16.269C16.36 6.92101 17.079 7.64099 18.25 7.73099V16.27C17.08 16.36 16.36 17.08 16.269 18.25ZM3.75 5.5V4.5C3.75 3.911 3.911 3.75 4.5 3.75H5.5C6.089 3.75 6.25 3.911 6.25 4.5V5.5C6.25 6.089 6.089 6.25 5.5 6.25H4.5C3.911 6.25 3.75 6.089 3.75 5.5ZM6.25 19.5C6.25 20.089 6.089 20.25 5.5 20.25H4.5C3.911 20.25 3.75 20.089 3.75 19.5V18.5C3.75 17.911 3.911 17.75 4.5 17.75H5.5C6.089 17.75 6.25 17.911 6.25 18.5V19.5ZM20.25 18.5V19.5C20.25 20.089 20.089 20.25 19.5 20.25H18.5C17.911 20.25 17.75 20.089 17.75 19.5V18.5C17.75 17.911 17.911 17.75 18.5 17.75H19.5C20.089 17.75 20.25 17.911 20.25 18.5Z" fill="currentColor"/>
</svg>

<svg xmlns="http://www.w3.org/2000/svg" width="24" height="24" fill="none"><path fill="currentColor" d="M21.75 5.5v-1c0-1.409-.841-2.25-2.25-2.25h-1c-1.321 0-2.133.746-2.231 2H7.73c-.097-1.254-.91-2-2.231-2h-1c-1.409 0-2.25.841-2.25 2.25v1c0 1.321.746 2.133 2 2.23v8.539c-1.254.097-2 .909-2 2.23v1c0 1.409.841 2.25 2.25 2.25h1c1.321 0 2.133-.746 2.231-2h8.539c.097 1.254.91 2 2.231 2h1c1.409 0 2.25-.841 2.25-2.25v-1c0-1.321-.746-2.133-2-2.23V7.73c1.254-.097 2-.909 2-2.23Zm-4-1c0-.589.161-.75.75-.75h1c.589 0 .75.161.75.75v1c0 .589-.161.75-.75.75h-1c-.589 0-.75-.161-.75-.75v-1Zm-1.481 13.75H7.73c-.091-1.17-.81-1.89-1.981-1.98V7.731c1.17-.091 1.89-.81 1.981-1.98h8.539c.091 1.17.81 1.89 1.981 1.98v8.539c-1.17.09-1.89.81-1.981 1.98ZM3.75 5.5v-1c0-.589.161-.75.75-.75h1c.589 0 .75.161.75.75v1c0 .589-.161.75-.75.75h-1c-.589 0-.75-.161-.75-.75Zm2.5 14c0 .589-.161.75-.75.75h-1c-.589 0-.75-.161-.75-.75v-1c0-.589.161-.75.75-.75h1c.589 0 .75.161.75.75v1Zm14-1v1c0 .589-.161.75-.75.75h-1c-.589 0-.75-.161-.75-.75v-1c0-.589.161-.75.75-.75h1c.589 0 .75.161.75.75Z"/></svg>
